X: 40604
T: Ton, The
R: polka
M: 2/4
K: Amajor
|:c/d/|ea ae/d/|ce ec/B/|AA B>B|c/B/c/d/ Bc/d/|
ea/g/ ae/d/|ce ec/B/|AA B/^A/B/c/|A2 A:|
c/d/|ea fd|ea fd|e>c Ac|B/^A/B/c/ Bc/d/|
ea fd|e>a fd|c/e/c/A/ B/d/B/G/|Ac A||
c/d/|ee/e/ ea|ee/e/ ea|ee f/e/d/c/|B2- Bc/d/|
ee/4e/4e/ ea|ee/4e/4e/ ea|c'a b/a/g|ac' a||

